X:026
U: ~ = !turn!
%%topmargin 3cm
T:Captain White's Jig
B:Traditional Irish Fiddle Tunes. Randy Miller and Jack Perron.
Z:Transcribed by Ralph Palmer
R:Jig
L:1/8
M:6/8
K:D
DFA d2 f | edc Bcd | A2 A G2 B | AFD E3 |
DFA d2 f | edc Bcd | A2 A G2 B | ABc d2 :|]
K:A
f | efe A2 f | efe a2 f | efe dcB | A2 Bc2 d |
efe A2 f | efe a2 f | efe dcB | ABA GFE ||
K:D
D2 f {/g}fef | d2 A A2 B | [D2A2] f {/g}fef | g2 e e2 A |
[D2A2] f {/g}fef | d2 A A2 A | Bed cBc | d2 d dcB :|]
